fs/notepad_person_16_filled.svg

<svg viewBox="0 0 16 16" fill="none" xmlns="http://www.w3.org/2000/svg" height="1em" width="1em">
  <path d="M5 1C5.27614 1 5.5 1.22386 5.5 1.5V2H7.5V1.5C7.5 1.22386 7.72386 1 8 1C8.27614 1 8.5 1.22386 8.5 1.5V2H10.5V1.5C10.5 1.22386 10.7239 1 11 1C11.2761 1 11.5 1.22386 11.5 1.5V2C12.3284 2 13 2.67157 13 3.5V5.40135C12.5587 5.14609 12.0464 5 11.5 5C11.1135 5 10.744 5.07311 10.4047 5.20625C10.3138 5.08126 10.1664 5 10 5H6C5.72386 5 5.5 5.22386 5.5 5.5C5.5 5.77614 5.72386 6 6 6H9.26389C8.78885 6.53076 8.5 7.23164 8.5 8L6 8C5.72386 8 5.5 8.22386 5.5 8.5C5.5 8.77614 5.72386 9 6 9H8.67071C8.80489 9.37963 9.01331 9.72419 9.27854 10.0162C9.14243 10.0364 9.01228 10.0748 8.89066 10.1289C7.83296 10.3283 7 11.2362 7 12.3755C7 13.3135 7.37806 14.1715 8 14.804V15H4.5C3.67157 15 3 14.3284 3 13.5V3.5C3 2.67157 3.67157 2 4.5 2V1.5C4.5 1.22386 4.72386 1 5 1ZM5.5 11.5C5.5 11.7761 5.72386 12 6 12H6.5C6.77614 12 7 11.7761 7 11.5C7 11.2239 6.77614 11 6.5 11H6C5.72386 11 5.5 11.2239 5.5 11.5ZM9.3283 11.0881C9.28815 11.0881 9.24842 11.0899 9.20918 11.0932C8.53139 11.1516 8 11.7034 8 12.3755C8 13.1684 8.38407 13.8911 9 14.3547C9.06728 14.4054 9.13734 14.4529 9.20996 14.4972C9.43634 14.635 9.68768 14.7404 9.95798 14.8059L10.0406 14.8259C10.9988 15.058 12.0012 15.058 12.9594 14.8259L13.042 14.8059C14.1927 14.5271 15 13.525 15 12.3755C15 11.6645 14.4053 11.0881 13.6717 11.0881H9.3283ZM11.5 6C12.0973 6 12.6335 6.26188 13 6.67709C13.3112 7.02965 13.5 7.49277 13.5 8C13.5 8.50722 13.3112 8.97034 13 9.32291C12.6335 9.73812 12.0973 9.99999 11.5 9.99999C10.7597 9.99999 10.1134 9.5978 9.76757 9C9.5974 8.70583 9.5 8.36429 9.5 8C9.5 8 9.5 8 9.5 8C9.5 6.89543 10.3954 6 11.5 6Z" fill="#212121"/>
</svg>

<svg viewBox="0 0 16 16" fill="none" xmlns="http://www.w3.org/2000/svg" height="1em" width="1em">
  <path d="M5 1a.5.5 0 0 1 .5.5V2h2v-.5a.5.5 0 0 1 1 0V2h2v-.5a.5.5 0 0 1 1 0V2A1.5 1.5 0 0 1 13 3.5v1.901A2.986 2.986 0 0 0 11.5 5c-.386 0-.756.073-1.095.206A.5.5 0 0 0 10 5H6a.5.5 0 0 0 0 1h3.264A2.989 2.989 0 0 0 8.5 8H6a.5.5 0 0 0 0 1h2.67c.135.38.343.724.609 1.016-.137.02-.267.059-.388.113C7.833 10.329 7 11.236 7 12.376c0 .938.378 1.796 1 2.428V15H4.5A1.5 1.5 0 0 1 3 13.5v-10A1.5 1.5 0 0 1 4.5 2v-.5A.5.5 0 0 1 5 1Zm.5 10.5a.5.5 0 0 0 .5.5h.5a.5.5 0 0 0 0-1H6a.5.5 0 0 0-.5.5Zm3.828-.412c-.04 0-.08.002-.119.005-.678.059-1.209.61-1.209 1.283a2.478 2.478 0 0 0 1.21 2.121c.226.138.478.243.748.309l.083.02c.958.232 1.96.232 2.918 0l.083-.02c1.15-.279 1.958-1.281 1.958-2.43 0-.711-.595-1.288-1.328-1.288H9.328ZM11.5 6a1.997 1.997 0 0 1 2 2c0 .507-.189.97-.5 1.323A2 2 0 0 1 9.5 8a2 2 0 0 1 2-2Z" fill="#212121"/>
</svg>
